X:1
T:I’m a Subject of the King
T:I’m a Subject of the King
T:Robert Harkness
T:George J. Fulcher, 1908, arranged
T:Public Domain Courtesy of the Cyber Hymnal™
T:Public Domain Courtesy of the Cyber Hymnal™
C:Robert Harkness
Z:Public Domain
Z:Courtesy of the Cyber Hymnal™
%%score ( 1 2 ) ( 3 4 )
L:1/8
Q:1/4=95
M:4/4
K:Ab
V:1 treble 
V:2 treble 
V:3 bass 
V:4 bass 
V:1
 [CE]>[CE] | [CA]>[CB] [CA]>[CF] [CE]2 [CF]2 | [DG]6 [DE]>[DE] | %3
w: 1.~I’m a|sub- ject of the King of|kings, He has|
w: 2.~I’ll be|faith- ful to the King of|kings, Liv- ing|
w: 3.~Join the|ser- vice of the King of|kings, There is|
 [EB]>[Ec] [EB]>[DG] [DF]>[DE] [DF]>[DE] | [Ec]6 [CE]>[CE] | %5
w: called me for a ser- vice, this I|know; I shall|
w: ev- ery day so He may say ’tis|well; While He’s|
w: glor- ious work that ev- ery- one can|do; Ne- ver|
 [CA]>[B,G] [CA]>[DB] ([Ec]>[Ec]) [EB]>[EA] | [EG]>[=DF] [EG]>[FA] ([GB]>[GB]) [^F=A]>[GB] | %7
w: rep- re- sent Him here, * Tell His|sto- ry far and near, * And when|
w: train- ing me for glory, * I will|tell the old, old story, * How a|
w: bring to Him dis- grace, * Ev- er|look- ing at His face, * Fight the|
 [A=d]>[Ac] [AB]>[Ac] [AB]>[=DF] [EG]>[FA] | (B4 !fermata!e2) ||"^Refrain" [DE]>[DE] | %10
w: He is done with me with Him I’ll|go. *||
w: sin- ner saved with Je- sus there shall|dwell. *|I’m a|
w: bat- tle, there’s a crown in store for|you. *||
 [CA]>[CB] [CA]>[CF] [CE]2 [CF]2 | [DG]6 [DE]>[DE] | [EB]>[Ec] [EB]>[DG] [DF]2 [DE]2 | %13
w: |||
w: sub- ject of the King of|kings, I’m a|sub- ject of the King of|
w: |||
 [Ec]6 [CE]>[CE] | [CA]>[CG] [CA]>[DB] [Ec]2 [EA]>[EA] | %15
w: ||
w: kings, He has|saved me by His love, I’m com-|
w: ||
 [Ad]>[Ac] [Ad]>[Ae] !fermata![Af]2 [Ae]>[Ad] | [Ac]/!fermata!A/ z [Ad]>[Ac] [Gc]2 [EB]2 | [EA]6 |] %18
w: |||
w: mand- ed from a- bove, I’m a|sub- ject of the King of|kings.|
w: |||
V:2
 x2 | x8 | x8 | x8 | x8 | x8 | x8 | x8 | G6 || x2 | x8 | x8 | x8 | x8 | x8 | x8 | x/ A/ x7 | x6 |] %18
V:3
 [A,,A,]>[A,,A,] | [A,,E,]>[A,,E,] [E,,A,,E,]>[E,,A,,E,] [A,,A,]2 [A,,E,]2 | %2
 [B,,E,]2 [E,B,]2 [E,B,]2 [E,G,]>[E,G,] | [E,G,]>[E,A,] [E,G,]>[E,B,] [E,A,]>[E,G,] [E,A,]>[E,G,] | %4
 z3/2 (E,,<F,,G,,/ A,,2) [A,,A,]>[A,,A,] | %5
 [A,,E,]>[A,,E,] [A,,E,]>[A,,E,] ([A,,A,]>[A,,A,]) [B,,G,]>[C,A,] | %6
 [B,,B,]>[B,,B,] [E,B,]>[E,B,] ([E,E]>[E,E]) [E,E]>[E,E] | B,>B, B,>B, B,>B, [G,B,]>[F,A,] | %8
 !fermata![E,B,]6 || [E,G,]>E, | [A,,E,]>[A,,E,] [E,,A,,E,]>[E,,A,,E,] [A,,E,]2 [E,,A,,E,]2 | %11
 [B,,E,]2 [E,B,]2 [E,B,]2 [E,G,]>[E,G,] | [E,G,]>[E,A,] [E,G,]>[E,B,] [E,A,]2 [E,G,]2 | %13
 ([A,,A,]3/2 E,/) F,>G, A,2 [A,,A,]>[A,,A,] | [A,,E,]>[A,,E,] [A,,E,]>[A,,A,] A,2 [_G,C]>[G,C] | %15
 [F,D]>[_G,E] [F,D]>[E,C] !fermata![D,D]2 [E,C]>[F,D] | %16
 [E,E]/!fermata![E,C]/ z [E,F]>[E,E] [E,E]2 [E,D]2 | [A,,C]6 |] %18
V:4
 x2 | x8 | x8 | x8 | [A,,A,]6 x2 | x8 | x8 | B,>B, B,>B, B,>B, x2 | x6 || x3/2 E,/ | x8 | x8 | x8 | %13
 x3/2 (E,/ F,>G,) x4 | x4 A,2 x2 | x8 | x8 | x6 |] %18

